X: 519
T: Pie baicai
L: 1/16
M: 2/4
K: G
G2 G2 F2 E D [I:setbarnb 1]| 
F2> E2D4 | 
e g B2 d e B A | 
G4E4 | 
e g e B d ^c B2 | 
A2 B AG4 | 
c2 E2 G2 F E | 
D8 | 
e g e B d2 ^c B | 
A2 B AG4 | 
c2 E2 G2 F, E | 
D8 |]

@@@ Tune index: 9393
